X:186
T:Hot Ashpelt
B:Something to Sing (Cambridge 1965)
Z:Nigel Gatherer
M:6/8
L:1/8
K:Em
G|E2 E E2 F|E2 D EFF|
G2 A B2 G|A3 B2 d|e2 d B2 A|
G2 E E2 D|E2 E E2 B,|D3 G2 F|
E2 E E2 F|E2 D E2 F|G2 A B2 G|
A3 B2 d|e2 d B2 A|G2 E F2 D|
E z2 E z2|E z2 BBB|d2 d d2 B|
d d2-d2 B|d2 c B2 c|d2 z z2 d|
e2 B B2 A|G E2-E2 F|E2 E E2 B,|
D2 z G2 F|EEE E2 F|E2 D E2 F|
G2 A B2 G|A2 z B2 d|e2 d B2 A|
G2 E FFD|E z2 E z2|E z2 z2|]
<end>
<start>
